X:234
T:It's Rainin' Here This Morning
C:Adam Steffey (Jim Mills "My Dixie Home")
N:Transcribed by Steve Keating
R:bluegrass
L:1/8
Q:1/4=265
M:4/4
K:G
z2 =FE DE G2 | 
K:C
"G"AB BA Bd d2 | e2 d2 AB Bd | BA G2 GD E^F | GE DB, G,B, D^F | E^F G2 AB Bd | 
e2 d2 c2 B2 | "D"A2 G/A/A AB cB | AG ^FE DF AF | "G"E^F G2 AB Bd | e2 d2 AB Bd | 
BA G2 G2 GA | Bc de ga ba | ge ag eb ge | "D"dg ed Bd BA | "G"GB AG E^F GE | DB, G,G, A,B, B,G, | 
"C"B,C CC CC CD | ED EG GD E^F | "G"GE DB, G,G, DB, | G,B, A,G, A,_B, =B,D | E^F GA Bc de | 
ga bg ag ea | "D"^fa g=f ^fd Bc | d2 DE GA B2 | "G"Bd dg d2 g2 | e2 d2 AB Bd | 
BA G2 GD E^F | GE DB, [DG,]G DB, | G,B, A,G, A,B, CD | "D"E^F GB AG EF | "G"GE FE D^C =CB, | 
G8 | z8 | z8 | z8 | 


